images/traning-7.svg

<svg width="50" height="49" viewBox="0 0 50 49" fill="none" xmlns="http://www.w3.org/2000/svg">
<path d="M19.6026 48.0918C20.9598 46.7295 24.5787 43.0967 25.7096 41.9614C25.7096 42.1128 25.785 42.1885 25.8604 42.3398C26.0866 43.0967 26.3128 43.9292 27.2175 44.9131C28.0469 45.7456 29.027 46.1997 30.0825 46.1997C31.1381 46.1997 32.1936 45.7456 32.9475 44.9131C33.7769 44.0806 34.2292 43.021 34.2292 41.9614C34.2292 40.9019 33.7769 39.918 32.9475 39.0855C32.0428 38.1773 31.1381 37.9502 30.3841 37.7232C30.2333 37.6475 30.0825 37.6475 30.0071 37.5718C31.1381 36.3608 34.8324 32.728 36.0387 31.5171C37.3204 30.2305 37.3204 29.5493 36.0387 28.2627L30.6103 22.7378C29.2532 21.3755 28.2731 21.7539 27.7453 22.2837C27.1421 22.8892 26.9159 23.646 26.7652 24.2515C26.6144 24.857 26.539 25.3111 26.0866 25.7652C25.2573 26.5977 24.2017 26.5977 23.3724 25.7652C22.543 24.9326 22.543 23.8731 23.3724 23.0405C23.8248 22.5864 24.2771 22.4351 24.8803 22.2837C25.4834 22.1323 26.162 21.9053 26.7652 21.2998C27.5945 20.4673 27.4437 19.5591 26.3882 18.4239L20.809 12.899C19.6026 11.688 18.8487 11.688 17.567 12.9746C15.6067 14.9424 12.5155 18.0454 11.46 19.105C11.46 19.0293 11.3846 18.878 11.3846 18.7266C11.2338 18.0454 11.0076 17.0615 10.0275 16.0777C9.19817 15.2451 8.14264 14.791 7.08711 14.791C6.03158 14.791 4.97606 15.2451 4.14671 16.0777C3.31737 16.9102 2.865 17.9698 2.865 19.0293C2.865 20.0889 3.31737 21.0728 4.14671 21.981C5.05145 22.8892 5.95619 23.1919 6.63474 23.3433C6.78553 23.419 6.93632 23.419 7.01171 23.4946C5.88079 24.6299 2.18645 28.3384 0.904735 29.625C0.22618 30.3062 -8.20037e-07 30.7603 -8.39887e-07 31.2144C-8.59736e-07 31.6685 0.301578 32.1226 0.904735 32.8037L6.40856 38.3286C6.63474 38.5557 7.01171 38.9341 7.46408 39.0855C8.06724 39.3882 8.6704 39.2368 9.19816 38.707C9.80132 38.1016 10.0275 37.3447 10.1783 36.8149C10.3291 36.2852 10.4799 35.8311 10.9322 35.3013C11.3846 34.8472 11.837 34.6201 12.2894 34.6201C12.7417 34.6201 13.1941 34.8472 13.6465 35.3013C14.0234 35.6797 14.2496 36.2095 14.2496 36.6636C14.2496 37.1177 14.0234 37.6475 13.6465 38.0259C13.1941 38.48 12.7417 38.5557 12.1386 38.707C11.7616 38.8584 11.0076 39.0098 10.4045 39.6152C9.65053 40.3721 9.80132 41.356 10.8568 42.4912L16.3607 48.0161C16.9638 48.6216 17.4162 49 17.944 49C18.5471 49 19.0749 48.6216 19.6026 48.0918Z" fill="#FF8901"/>
<path d="M49.0635 4.92485L45.0732 0.933838C43.828 -0.311279 41.8066 -0.311279 40.5622 0.933838L36.8116 4.68911L45.2518 13.1891L49.0077 9.43384C50.3119 8.18806 50.3119 6.16997 49.0635 4.92485ZM18.0611 23.3818C17.9127 23.5302 17.8117 23.719 17.7704 23.9247L16.0213 32.6704C15.8867 33.3427 16.4086 34.0002 17.059 34.0002C17.1287 34.0002 17.1996 33.9933 17.2715 33.9789L26.0172 32.2298C26.2229 32.1886 26.4117 32.0876 26.5601 31.9394L43.8058 14.6937L35.3058 6.19366L18.0611 23.3818ZM24.7588 29.2322L19.7691 30.2303L20.7671 25.2399L22.3748 23.6341V27.6252H26.3672L24.7588 29.2322Z" fill="#1D5C73"/>
</svg>

<svg width="50" height="49" fill="none" xmlns="http://www.w3.org/2000/svg"><path d="M19.603 48.092l6.107-6.13c0 .15.075.226.15.378.227.757.453 1.59 1.358 2.573.829.833 1.809 1.287 2.864 1.287a3.888 3.888 0 002.865-1.287c.83-.832 1.282-1.892 1.282-2.952s-.452-2.043-1.282-2.875c-.904-.909-1.809-1.136-2.563-1.363-.15-.075-.302-.075-.377-.151 1.131-1.211 4.825-4.844 6.032-6.055 1.281-1.287 1.281-1.968 0-3.254l-5.429-5.525c-1.357-1.363-2.337-.984-2.865-.454-.603.605-.83 1.362-.98 1.968-.15.605-.226 1.06-.678 1.513-.83.833-1.885.833-2.715 0-.829-.832-.829-1.892 0-2.724.453-.455.905-.606 1.508-.757.603-.152 1.282-.379 1.885-.984.83-.833.679-1.74-.377-2.876l-5.579-5.525c-1.206-1.211-1.96-1.211-3.242.076l-6.107 6.13c0-.076-.075-.227-.075-.378-.151-.682-.377-1.666-1.357-2.65-.83-.832-1.885-1.286-2.94-1.286-1.056 0-2.112.454-2.941 1.287-.83.832-1.282 1.892-1.282 2.951 0 1.06.452 2.044 1.282 2.952a4.833 4.833 0 002.488 1.362c.15.076.301.076.377.152l-6.107 6.13C.226 30.306 0 30.76 0 31.215c0 .454.302.908.905 1.589l5.504 5.525c.226.227.603.605 1.055.757.603.302 1.206.15 1.734-.379.603-.605.83-1.362.98-1.892.151-.53.302-.984.754-1.514.453-.454.905-.68 1.357-.68.453 0 .905.226 1.357.68.377.379.604.908.604 1.363 0 .454-.227.983-.604 1.362-.452.454-.904.53-1.507.681-.377.151-1.131.303-1.734.908-.754.757-.604 1.741.452 2.876l5.504 5.525c.603.606 1.055.984 1.583.984.603 0 1.13-.378 1.659-.908z" fill="#FF8901"/><path d="M49.063 4.925L45.073.934a3.19 3.19 0 00-4.51 0l-3.751 3.755 8.44 8.5 3.756-3.755a3.134 3.134 0 00.055-4.51zM18.061 23.382c-.148.148-.25.337-.29.543l-1.75 8.745c-.134.673.388 1.33 1.038 1.33.07 0 .14-.007.212-.021l8.746-1.75c.206-.04.395-.141.543-.29l17.246-17.245-8.5-8.5L18.06 23.382zm6.698 5.85l-4.99.998.998-4.99 1.608-1.606v3.991h3.992l-1.608 1.607z" fill="#1D5C73"/></svg>
